**kern	**kern
*part1	*part1
*staff2	*staff1
*I"Piano	*
*clefF4	*clefG2
*k[b-e-a-d-g-]	*k[b-e-a-d-g-]
=1	=1
*^	*
8d-L	2.D-	4f)) 4a-
8A-	.	.
8d-	.	4r
8A-	.	.
8d-	.	((4e- 4g-
8A-J	.	.
=	=	=
8d-L	2.D-	4f))
8A-	.	.
8d-	.	4r
8A-	.	.
*	*	*clefF4
8d-	.	((4GG- 4BB-
8A-J	.	.
=	=	=
8d-L	2.D-	4FF)) 4AA-
8A-	.	.
8d-	.	4r
8A-	.	.
8d-	.	((4EE- 4GG-
8A-J	.	.
=	=	=
8d-L	2.D-	4FF))
8A-	.	.
8d-	.	4r
8A-	.	.
8d-	.	(4FF
8A-J	.	.
=	=	=
8d-L	[2.D-	2.DD-)
8A-	.	.
8d-	.	.
8A-	.	.
8d-	.	.
8A-J	.	.
=	=	=
4d-;	[2.D-]	2.r
4r	.	.
4r	.	.
=:|!	=:|!	=:|!
!	!	!LO:TX:b:i:t=FINE
.	[4qqD-\]	.
4d-;	2.D-]	2.r;
4r	.	.
4r	.	.
*v	*v	*
==	==
*-	*-
!!!system-decoration: {(s1,s2)}
